X: 11540
T: Eddie The Fiddlemaker
R: jig
M: 6/8
K: Gdorian
[1 G2A B2c|dBG Bcd|efe dcA|GAG G3||
[2 G2A B2c|dBd g3|ded cAF|G3 G3||
[3 G2A B2c|dBd f3|ded cAF|G3 G3||
g3gba|gfd gab|g3gag|fdc dfg||

